svg/fluentui-system-icons/ic_fluent_cube_quick_28_regular.svg

<svg width="28" height="28" viewBox="0 0 28 28" fill="none" xmlns="http://www.w3.org/2000/svg">
<path d="M18.7216 8.55177C18.5819 8.48274 18.4181 8.48274 18.2784 8.55177L13.7784 10.7761C13.6079 10.8604 13.5 11.0342 13.5 11.2244V16.777C13.5 16.9672 13.6079 17.1409 13.7784 17.2252L18.2784 19.4496C18.4181 19.5186 18.5819 19.5186 18.7216 19.4496L23.2216 17.2252C23.3921 17.1409 23.5 16.9672 23.5 16.777V11.2244C23.5 11.0342 23.3921 10.8604 23.2216 10.7761L18.7216 8.55177ZM17.6138 7.20708C18.1723 6.93097 18.8277 6.93097 19.3862 7.20708L23.8862 9.43144C24.5683 9.76859 25 10.4635 25 11.2244V16.777C25 17.5378 24.5683 18.2328 23.8862 18.5699L19.3862 20.7943C18.8277 21.0704 18.1723 21.0704 17.6138 20.7943L13.1138 18.5699C12.4317 18.2328 12 17.5378 12 16.777V11.2244C12 10.4635 12.4317 9.76859 13.1138 9.43144L17.6138 7.20708ZM4 9.25065C4 8.83643 4.33579 8.50065 4.75 8.50065H9.75C10.1642 8.50065 10.5 8.83643 10.5 9.25065C10.5 9.66486 10.1642 10.0006 9.75 10.0006H4.75C4.33579 10.0006 4 9.66486 4 9.25065ZM2 13.7506C2 13.3364 2.33579 13.0006 2.75 13.0006H7.75C8.16421 13.0006 8.5 13.3364 8.5 13.7506C8.5 14.1649 8.16421 14.5006 7.75 14.5006H2.75C2.33579 14.5006 2 14.1649 2 13.7506ZM4.75 17.5006C4.33579 17.5006 4 17.8364 4 18.2506C4 18.6649 4.33579 19.0006 4.75 19.0006H9.75C10.1642 19.0006 10.5 18.6649 10.5 18.2506C10.5 17.8364 10.1642 17.5006 9.75 17.5006H4.75ZM16.1091 11.5922C15.7455 11.3939 15.2899 11.5279 15.0916 11.8915C14.8932 12.2551 15.0272 12.7107 15.3909 12.9091L17.75 14.1959V17.2506C17.75 17.6649 18.0858 18.0006 18.5 18.0006C18.9142 18.0006 19.25 17.6649 19.25 17.2506V14.1959L21.6091 12.9091C21.9728 12.7107 22.1068 12.2551 21.9084 11.8915C21.7101 11.5279 21.2545 11.3939 20.8909 11.5922L18.5 12.8963L16.1091 11.5922Z" fill="#212121"/>
</svg>

<svg xmlns="http://www.w3.org/2000/svg" width="28" height="28"><path d="M18.722 8.552a.5.5 0 0 0-.444 0l-4.5 2.224a.5.5 0 0 0-.278.448v5.553a.5.5 0 0 0 .278.448l4.5 2.225a.5.5 0 0 0 .444 0l4.5-2.225a.5.5 0 0 0 .278-.448v-5.553a.5.5 0 0 0-.278-.448l-4.5-2.224Zm-1.108-1.345a2 2 0 0 1 1.772 0l4.5 2.224A2 2 0 0 1 25 11.224v5.553a2 2 0 0 1-1.114 1.793l-4.5 2.224a2 2 0 0 1-1.772 0l-4.5-2.224A2 2 0 0 1 12 16.777v-5.553a2 2 0 0 1 1.114-1.793l4.5-2.224ZM4 9.251a.75.75 0 0 1 .75-.75h5a.75.75 0 0 1 0 1.5h-5A.75.75 0 0 1 4 9.25Zm-2 4.5a.75.75 0 0 1 .75-.75h5a.75.75 0 0 1 0 1.5h-5a.75.75 0 0 1-.75-.75Zm2.75 3.75a.75.75 0 0 0 0 1.5h5a.75.75 0 1 0 0-1.5h-5Zm11.36-5.909a.75.75 0 0 0-.72 1.317l2.36 1.287v3.055a.75.75 0 1 0 1.5 0v-3.055l2.36-1.287a.75.75 0 1 0-.72-1.317l-2.39 1.304-2.39-1.304Z"/></svg>
